svgs/sharp-solid/files.svg

<svg xmlns="http://www.w3.org/2000/svg" viewBox="0 0 448 512"><!--! Font Awesome Pro 6.6.0 by @fontawesome - https://fontawesome.com License - https://fontawesome.com/license (Commercial License) Copyright 2024 Fonticons, Inc. --><path d="M320 96l0 32 32 0 96 0 0 288L96 416 96 0 320 0l0 96zm128 0l-45.3 0L384 96l-32 0 0-32 0-18.7L352 0l32 32 32 32 32 32zM48 120l0 344 280 0 24 0 0 48-24 0L24 512 0 512l0-24L0 120 0 96l48 0 0 24z"/></svg>

<svg xmlns="http://www.w3.org/2000/svg" viewBox="0 0 448 512"><!--! Font Awesome Pro 6.4.2 by @fontawesome - https://fontawesome.com License - https://fontawesome.com/license (Commercial License) Copyright 2023 Fonticons, Inc. --><path d="M320 96v32h32 96V416H96V0H320V96zm128 0H402.7 384 352V64 45.3 0l32 32 32 32 32 32zM48 120V464H328h24v48H328 24 0V488 120 96H48v24z"/></svg>
